X: 5
T: Coppers And Brass
R: jig
M: 6/8
L: 1/8
K: Gmaj
|:~B3 GAB|~c3 Adc|B2 D GBd|cAG FGA||~B3 GAB|~c3 ABc|ded cAF|1AGF G2 A:|2AGF GBd|||:~f3 fed|cAG FGA|dgg gfg|afd d3||(3fga f ged|cAG FGA|~B3 cAF|1AGF GBd:|2AGF G3||


Tune 228	Setting 27044

